X:271
T: O ALTE BURSCHENHERRLICHKEIT
N: F0473
O: Europa, Mitteleuropa, Deutschland
R: Studenten -, Burschenschafts - Lied
M: 4/4
L: 1/8
K: C
EF | G2G2ABFD | C2E2E2z
E | D3EF2G2 | F2E2z2
G2 | G3Ec3B | B3AA2
A2 | G3AGEFD | D2C2z2
E2 | D2G2G2B2 | BAcBA2
D2 | D2A2A2c2 | cBdcBAG
G | G3Ec3B | BAA2z2
A2 | G3AGEFD | D4C2

